src/main/resources/icons/TasksCoreIcons/icons/trello.svg

<svg xmlns="http://www.w3.org/2000/svg" width="16" height="16" viewBox="0 0 16 16">
  <path fill="#0079BF" d="M3,1 L13,1 C14.1045695,1 15,1.8954305 15,3 L15,13 C15,14.1045695 14.1045695,15 13,15 L3,15 C1.8954305,15 1,14.1045695 1,13 L1,3 C1,1.8954305 1.8954305,1 3,1 Z M4,3 C3.44771525,3 3,3.44771525 3,4 L3,11 C3,11.5522847 3.44771525,12 4,12 L6,12 C6.55228475,12 7,11.5522847 7,11 L7,4 C7,3.44771525 6.55228475,3 6,3 L4,3 Z M10,3 C9.44771525,3 9,3.44771525 9,4 L9,8 C9,8.55228475 9.44771525,9 10,9 L12,9 C12.5522847,9 13,8.55228475 13,8 L13,4 C13,3.44771525 12.5522847,3 12,3 L10,3 Z"/>
</svg>

<svg xmlns="http://www.w3.org/2000/svg" width="16" height="16" viewBox="0 0 16 16"><rect id="frame" width="16" height="16" fill="none"/><path fill="#0079BF" d="M3 1h10a2 2 0 0 1 2 2v10a2 2 0 0 1-2 2H3a2 2 0 0 1-2-2V3a2 2 0 0 1 2-2zm1 2a1 1 0 0 0-1 1v7a1 1 0 0 0 1 1h2a1 1 0 0 0 1-1V4a1 1 0 0 0-1-1H4zm6 0a1 1 0 0 0-1 1v4a1 1 0 0 0 1 1h2a1 1 0 0 0 1-1V4a1 1 0 0 0-1-1h-2z"/></svg>
